X: 11638
T: Eileen Curran
R: reel
M: 4/4
K: Edorian
GFED B,EEG|FDAD BDAD|GFED (3B,CD EF|GFGA Beef|
(3gfe fd eBBc|dBAG FD D2|GFED (3B,CD EF|GBAF GE E2||
Eeed efed|Dddc defd|Eeed Beed|(3gfe fd Beef|
(3gfe (3fed eBBc|dBAG FD D2|GFED (3B,CD EF|GBAF GE E2||

